X:155
T: Accord [The]
C: Joe Derrane
D: "The Tie that Binds" [Shanachie]
Z: B.Black
L: 1/8
M: 6/8
R: jig
K: G
B,BA (3G/B/G/FG|BGg eBG|EBA G/B/GB|AFD FED|
B,GF EFG|(3B/c/B/AB dBd|Bge dBG|AFD E/F/E z :|
(3g/b/g/fg aga|bgf efg|(3f/g/f/ef gfg|afe dAF|
(3G/B/G/FG ABd|egf e/f/ed|edB dBG|AFD E2 :|
